src/cmd/sc_spacing.svg

<svg viewBox="0 0 16 16" xmlns="http://www.w3.org/2000/svg">/&gt;<path d="m2 2v5h1 1.5c.82843 0 1.5-.67157 1.5-1.5 0-.5333018-.2681977-1.015272-.6875-1.28125.1154583-.21254.1875-.4598656.1875-.71875 0-.82843-.67157-1.5-1.5-1.5h-1-.5zm8 0v5h1 1.5c.82843 0 1.5-.67157 1.5-1.5v-2c0-.82843-.67157-1.5-1.5-1.5h-1.5zm-7 1h1c.27614 0 .5.22386.5.5s-.22386.5-.5.5h-1zm8 0h1.5c.27614 0 .5.22386.5.5v.59375.8125.59375c0 .27614-.22386.5-.5.5h-1.5zm-4 1v1h2v-1zm-4 1h1.5c.27614 0 .5.22386.5.5s-.22386.5-.5.5h-1.5zm-1 4v1h3v-1zm5 0v1h2v-1zm4 0v1h3v-1zm-5 2-4 1.5 4 1.5zm4 0v3l4-1.5zm-2 1c-.2761424 0-.5.223858-.5.5s.2238576.5.5.5.5-.223858.5-.5-.2238576-.5-.5-.5z" fill="#232629"/></svg>

<?xml version="1.0" encoding="UTF-8" standalone="no"?>
<svg
   xmlns:dc="http://purl.org/dc/elements/1.1/"
   xmlns:cc="http://creativecommons.org/ns#"
   xmlns:rdf="http://www.w3.org/1999/02/22-rdf-syntax-ns#"
   xmlns:svg="http://www.w3.org/2000/svg"
   xmlns="http://www.w3.org/2000/svg"
   xmlns:sodipodi="http://sodipodi.sourceforge.net/DTD/sodipodi-0.dtd"
   xmlns:inkscape="http://www.inkscape.org/namespaces/inkscape"
   viewBox="0 0 16 16"
   version="1.1"
   id="svg4"
   sodipodi:docname="sc_spacing.svg"
   inkscape:export-filename="/home/jupiter007/Libreoffice yaru theme fullcolor/build/cmd/sc_spacing.png"
   inkscape:export-xdpi="96"
   inkscape:export-ydpi="96"
   inkscape:version="0.92.5 (2060ec1f9f, 2020-04-08)"><metadata
   id="metadata10">
  <rdf:RDF>
    <cc:Work
       rdf:about="">
      <dc:format>image/svg+xml</dc:format>
      <dc:type
         rdf:resource="http://purl.org/dc/dcmitype/StillImage" />
    </cc:Work>
  </rdf:RDF>
</metadata>
<defs
   id="defs8" />
<sodipodi:namedview
   pagecolor="#ffffff"
   bordercolor="#666666"
   borderopacity="1"
   objecttolerance="10"
   gridtolerance="10"
   guidetolerance="10"
   inkscape:pageopacity="0"
   inkscape:pageshadow="2"
   inkscape:window-width="1920"
   inkscape:window-height="1011"
   id="namedview6"
   showgrid="true"
   inkscape:zoom="29.5"
   inkscape:cx="5.3453542"
   inkscape:cy="5.8955536"
   inkscape:window-x="1920"
   inkscape:window-y="32"
   inkscape:window-maximized="1"
   inkscape:current-layer="svg4">
  <inkscape:grid
     type="xygrid"
     id="grid829" />
</sodipodi:namedview>
/&gt;<path
   sodipodi:nodetypes="cccsscssccccccsssscccssscccssccssccccccccssscc"
   style="opacity:0.6;fill:#000000;stroke:#000000;stroke-width:2;stroke-linejoin:round;stroke-miterlimit:4;stroke-dasharray:none"
   inkscape:connector-curvature="0"
   id="path819"
   d="M 2,2 V 7 H 3 4.5 C 5.32843,7 6,6.32843 6,5.5 6,4.9666982 5.7318023,4.484728 5.3125,4.21875 5.4279583,4.00621 5.5,3.7588844 5.5,3.5 5.5,2.67157 4.82843,2 4,2 H 3 2.5 Z m 8,0 v 5 h 1 1.5 C 13.32843,7 14,6.32843 14,5.5 v -2 C 14,2.67157 13.32843,2 12.5,2 H 11 Z M 3,3 H 4 C 4.27614,3 4.5,3.22386 4.5,3.5 4.5,3.77614 4.27614,4 4,4 H 3 Z m 8,0 h 1.5 C 12.77614,3 13,3.22386 13,3.5 V 4.09375 4.90625 5.5 C 13,5.77614 12.77614,6 12.5,6 H 11 Z M 7,4 V 5 H 9 V 4 Z M 3,5 H 4.5 C 4.77614,5 5,5.22386 5,5.5 5,5.77614 4.77614,6 4.5,6 H 3 Z" />
<path
   d="M 2,2 V 7 H 3 4.5 C 5.32843,7 6,6.32843 6,5.5 6,4.9666982 5.7318023,4.484728 5.3125,4.21875 5.4279583,4.00621 5.5,3.7588844 5.5,3.5 5.5,2.67157 4.82843,2 4,2 H 3 2.5 Z m 8,0 v 5 h 1 1.5 C 13.32843,7 14,6.32843 14,5.5 v -2 C 14,2.67157 13.32843,2 12.5,2 H 11 Z M 3,3 H 4 C 4.27614,3 4.5,3.22386 4.5,3.5 4.5,3.77614 4.27614,4 4,4 H 3 Z m 8,0 h 1.5 C 12.77614,3 13,3.22386 13,3.5 V 4.09375 4.90625 5.5 C 13,5.77614 12.77614,6 12.5,6 H 11 Z M 7,4 V 5 H 9 V 4 Z M 3,5 H 4.5 C 4.77614,5 5,5.22386 5,5.5 5,5.77614 4.77614,6 4.5,6 H 3 Z"
   id="path2"
   inkscape:connector-curvature="0"
   style="fill:#ffffff"
   sodipodi:nodetypes="cccsscssccccccsssscccssscccssccssccccccccssscc" />
<path
   style="opacity:0.6;fill:#000000;fill-opacity:1;stroke:#000000;stroke-width:2;stroke-linecap:butt;stroke-linejoin:round;stroke-miterlimit:4;stroke-dasharray:none;stroke-opacity:1"
   d="M 5 9 L 1 12 L 5 15 L 5 13 L 7 13 L 9 13 L 11 13 L 11 15 L 15 12 L 11 9 L 11 11 L 9 11 L 7 11 L 5 11 L 5 9 z "
   id="path856" />
<path
   style="fill:#aee3f8;fill-opacity:1;stroke:none;stroke-width:1px;stroke-linecap:butt;stroke-linejoin:miter;stroke-opacity:1"
   d="M 5 9 L 1 12 L 5 15 L 5 13 L 7 13 L 9 13 L 11 13 L 11 15 L 15 12 L 11 9 L 11 11 L 9 11 L 7 11 L 5 11 L 5 9 z "
   id="path834-1" />
</svg>
